!!!COM:	Ockeghem, Johannes
!!!CDT:	~1425-1497/02/06
!!!OPR:	Missa Mi mi
!!!ONM:	1
!!!OTL:	Kyrie
!!!AGN:	Mass; Kyrie
!!!SCT:	Ock1010a
!!!voices:	4
!!!voices-OPR:	4
**kern	**kern	**kern	**kern
*staff4	*staff3	*staff2	*staff1
*Ivox	*Ivox	*Ivox	*Ivox
*I"Bassus	*I"Tenor	*I"Altus	*I"Superius
*I'B	*I'T	*I'A	*I'S
*>[A,B,C]	*>[A,B,C]	*>[A,B,C]	*>[A,B,C]
*clefF4	*clefGv2	*clefGv2	*clefG2
*>A	*>A	*>A	*>A
*k[]	*k[]	*k[]	*k[]
*M3/1	*M3/1	*M3/1	*M3/1
*met(O)	*met(O)	*met(O)	*met(O)
=1-	=1-	=1-	=1-
!!section : Kyrie I
!!!OMD: Kyrie I
1.E	0.E	1.B	0e
2AA/	.	2A/	.
1AA	.	2A/	1e
.	.	2c\	.
=2	=2	=2	=2
1E	1G	2B\	1e
.	.	2G/	.
1.F	1.A	2r	1.d
.	.	2F/	.
.	.	2A/	.
2E\	2G/	2B\	4c/
.	.	.	4d/
=3	=3	=3	=3
1.C	1G	1c	1e
.	2A/	2C/	1r
2BB/	2G/	2D/	.
1AA	1c	2.E/	1e
.	.	4F/	.
=4	=4	=4	=4
1GG	1B	1G	2e/
.	.	.	1d
1r	1G	1E	.
.	.	.	1g
1D	1A	2D/	.
.	.	2d\	2f/
=5	=5	=5	=5
2E\	1.G	2c\	1g
1G	.	1B	.
.	.	.	2e/
2F\	1A	2A/	2d/
1D	.	1F	1f
.	2B\	.	.
=6	=6	=6	=6
2.C/	1c	1G	2.e/
4D\	.	.	4d/
2E\	1r	1r	1.B
2.E\	.	.	.
.	1r	1G	.
4D\	.	.	.
4C/	.	.	[2c/
4BB/	.	.	.
=7	=7	=7	=7
!!linebreak:original
2AA/	1r	2A/	2c/]
2GG/	.	2B\	2d/
2C/	1r	2E/	2e/
2D\	.	2F/	1d
1BB	1G#	1D	.
.	.	.	2B/
=8	=8	=8	=8
1AA	2.A/	2r	1c#
.	.	1A	.
.	4G/	.	.
1r	2F/	.	2r
.	2E/	2G/	2cni/
1r	2F/	2A/	2d/
.	2D/	2B\	2f/
=9	=9	=9	=9
1C	2C/	1c	1e
.	2.G/	.	.
2BB/	.	2d\	2d/
.	4F/	.	.
2AA/	2.A/	2.c\	2f/
1C	.	.	2e/
.	4G/	4B\	.
.	2E/	[2G/	[2g/
=10	=10	=10	=10
1C	2G/	2G/]	4g/]
.	.	.	4e/
.	2A/	2c\	1e
1D	1F	4B\	.
.	.	2A/	.
.	.	.	2d/
.	.	4G/	.
1AAl	1El	1Al	1el
!!LO:LB:i:g=z
=11||	=11||	=11||	=11||
*>B	*>B	*>B	*>B
!!section: Christe
!!!OMD: Christe
*M2/1	*M2/1	*M2/1	*M2/1
*met(C|)	*met(C|)	*met(C|)	*met(C|)
0r	[0B	0E	1.g
.	.	.	2f/
=12	=12	=12	=12
0r	0B]	0G	0d
=13	=13	=13	=13
0r	0A	1D	1f
.	.	[1C	[1e
=14	=14	=14	=14
!!linebreak:original
0r	0c	1C]	2e/]
.	.	.	2c/
.	.	1C	1e
=15	=15	=15	=15
0r	1B	1G	1d
.	1G	1E	[1g
=16	=16	=16	=16
0r	0A	0D	1g]
.	.	.	1f#i
=17	=17	=17	=17
0G	0G	[0d	0g
=18	=18	=18	=18
1F	0r	0d]	1a
1G	.	.	1g
=19	=19	=19	=19
1.A	0r	1.c	1f
.	.	.	1e
2G\	.	2B\	.
=20	=20	=20	=20
1E	1G	1c	1g
1D	1A	[1d	1f
=21	=21	=21	=21
!!pagebreak:original
0G	0B	2d\]	0d
.	.	1B	.
.	.	2G/	.
=22	=22	=22	=22
0C	0c	1G	1r
.	.	1r	[1g
=23	=23	=23	=23
1G	1B	1d	1g]
1A	[1c	1c	1f
=24	=24	=24	=24
0c	1c]	1A	1e
.	1A	[1e	[1a
=25	=25	=25	=25
0B	0E	1e]	1a]
.	.	1r	1g#i
=26	=26	=26	=26
0A	1r	0e	0a
.	[1A	.	.
=27	=27	=27	=27
0D	1A]	0d	1f
.	1B	.	[1a
=28	=28	=28	=28
!!linebreak:original
0C	1.c	1e	2a/]
.	.	.	2g/
.	.	1c	[1e
.	2A/	.	.
=29	=29	=29	=29
0G	1B	1r	2e/]
.	.	.	2d/
.	1G	1B	1g
=30	=30	=30	=30
0F	1r	2c\	1.a
.	.	1A	.
.	1D	.	.
.	.	2d\	2f/
=31	=31	=31	=31
1G	1E	2B\	2.e/
.	.	2c\	.
.	.	.	4d/
[1A	2D/	1d	1f
.	[2F/	.	.
=32	=32	=32	=32
2A\]	2F/]	2c\	2a/
2B\	2E/	1e	1g
1c	1C	.	.
.	.	2c\	[2e/
=33	=33	=33	=33
2B\	0G	1G	2e/]
2G\	.	.	1d
1B	.	1d	.
.	.	.	[2g/
=34	=34	=34	=34
0A	0D	1r	2g/]
.	.	.	2f#i/
.	.	1d	2f#i/
.	.	.	2e/
=35	=35	=35	=35
!!linebreak:original
0Gl	0Gl	0dl	0gl
!!LO:LB:i:g=z
=36||	=36||	=36||	=36||
*>C	*>C	*>C	*>C
!!section: Kyrie II
!!!OMD: Kyrie II
*M3/1	*M3/1	*M3/1	*M3/1
*met(O)	*met(O)	*met(O)	*met(O)
0C	1.G	[0.c	0g
.	2C/	.	.
1E	1C	.	1g
=37	=37	=37	=37
1E	1G	1c]	1g
0D	1A	0d	1.f
.	1B	.	.
.	.	.	2e/
=38	=38	=38	=38
0C	0c	0G	0e
1BB	1G	1B	1d
=39	=39	=39	=39
[0.AA	1A	1c	1c
.	0c	0e	0A
=40	=40	=40	=40
1AA]	1c	1E	1a
0E	0B	1r	2g/
.	.	.	1g
.	.	1G	.
.	.	.	4f/
.	.	.	4g/
=41	=41	=41	=41
1AA	1A	1c	1a
1r	2F/	2A/	1r
.	2D/	1d	.
1r	1E	.	1g
.	.	2c\	.
=42	=42	=42	=42
!!linebreak:original
0.r	1D	1d	1f
.	1r	2B\	2d/
.	.	1c	2c/
.	1r	.	2e/
.	.	2A/	2f/
=43	=43	=43	=43
0.r	0.r	2G/	2.g/
.	.	2c\	.
.	.	.	4e/
.	.	2d\	2f/
.	.	1c	2c/
.	.	.	1d
.	.	2B\	.
=44	=44	=44	=44
0.r	1.C	1.c	0c
.	2D/	2B\	.
.	[1E	1G	1r
=45	=45	=45	=45
0AA	1E]	0A	1.c
.	1E	.	.
.	.	.	2d/
1C	1r	1G	1e
=46	=46	=46	=46
1C	1G	1c	1e
0D	1.F	2B\	1.f
.	.	1A	.
.	2D/	2F/	2e/
=47	=47	=47	=47
1r	1C	1G	1e
0D	0F	0A	2d/
.	.	.	1d
.	.	.	4c/
.	.	.	4d/
=48	=48	=48	=48
1AA	1E	1A	2.e/
.	.	.	4f/
2BB/	1r	2d\	2g/
2AA/	.	2c\	2.a/
1C	1r	1e	.
.	.	.	4g/
.	.	.	2g/
=49	=49	=49	=49
!!pagebreak:original
1D	0.r	2.d\	2f/
.	.	.	1a
.	.	4c\	.
2F\	.	2d\	.
2E\	.	2.e\	2.g/
1G	.	.	.
.	.	4d\	4f/
.	.	2B\	4e/
.	.	.	4d/
=50	=50	=50	=50
1A	1r	2A/	2c/
.	.	1c	2f/
1E	1r	.	2g/
.	.	1B	1e
1F	1D	.	.
.	.	2A/	2d/
=51	=51	=51	=51
0.El	0.Gl	0.Bl	0.el
==	==	==	==
*-	*-	*-	*-
!!!RDF**kern: l=long note in original notation
!!!RDF**kern: i=editorial accidental
!!!ENC:	Will Watson 22/1/2012
!!!END:	2012/01/22/
!!!EED:	Jesse Rodin
!!!EEV:	2012/03/13/
!!!ONB:	Translated from MusicXML and edited on 2012/03/13/ by Craig Sapp
!!muse2ps: T^@{OPR}^u^@{ONM}{. }@{OTL}^C^@{COM}^i2I100v85,90,85,150Q16
